!!!SOCIAL_FUNCTION:	miscellaneous songs
!!!PDT:	1957
!!!OTL: No_4_Hunter's_Prayer_Song.krn
!!!LING_GROUP: Keresan
!!!LANG: Tone
!!!REG: Southwest
**kern
*staff1
=1-
*clefF4
*k[b-e-]
*M2/4
4r
8B-\L
8B-\J
=2!|:
8e-\L
8f\J
8e-\L
16e-\L
16c\JJ
=3
8e-\L
8c\J
8B-\L
8B-\J
=4
16e-\LK
8.c\J
16c\LK
8.B-\J
=5
8B-\L
8G\J
8F\L
8B-\J
=6
8B-\L
8B-\J
8B-\L
8B-\J
=7
8B-\
8r
8B-\L
8B-\J
=8
16e-\LK
8.c\J
16c\LK
8.B-\J
=9
8B-\L
8G\J
8F\L
8B-\J
=10
8B-\L
8B-\J
8B-\L
8B-\J
=11
16d\LL
16c\JJ
8r
8B-\L
8B-\J
=12
4f\
12f\L
12e-\
12c\J
=13
12e-\L
12c\
12c\J
8B-\L
8B-\J
=14
4c\
8c\L
8B-\J
=15
8B-\L
8G\J
8B-\L
8B-\J
=16
8B-\L
8B-\J
8B-\L
8B-\J
=17
8B-\
8r
8B-\L
8B-\J
=18
4c\
8c\L
8B-\J
=19
8.B-\L
16G\Jk
8F\L
8B-\J
=20
8B-\L
8B-\J
8B-\L
8B-\J
=21
16d\LL
16c\
16c\
16B-\JJ
8c\L
8B-\J
=22
*M3/4
4c\
8c\L
8B-\J
8B-\
8r
=23
8B-\L
8B-\J
8B-\L
8B-\J
8B-\L
8B-\J
=24
*M2/4
4c\
8c\L
8B-\J
==:|!
*-
